X:1
T:Title
%%score { ( 1 3 ) | ( 2 4 ) }
L:1/8
Q:1/4=100
M:4/4
K:F
V:1 treble nm="Grand Piano"
V:3 treble 
V:2 bass 
V:4 bass 
V:1
 F2 F>F F2 GA | F4 C2 z2 | A2 A>A A2 BG | A6 z2 | c2 c>d c2 AG | F2 F2 F4 | %6
w: D.~B.~Towner * * * * *||||||
 F>F (3FFF [CFA]2 [CF]>[CF] | G4 z4 | c>c (3ccc d2 A>A | [Fc]4 [EB]2 z2 | %10
w: ||||
 [GB]>[GB] (3[GB][GB][FB] [Ec]2 [EG]>[EG] | B4 A2 z2 | F2 F>G A2 AB | c2 d2 c4 | %14
w: ||||
 F>F (3FFF [CFA]2 [CF]>[CF] | G4 z4 |] %16
w: ||
V:2
 [F,A,C]2 [F,A,C]>[F,A,C] [F,A,C]2 [F,B,C][F,C] | [F,A,C]4 [F,A,]2 z2 | %2
 [F,CF]2 [F,CF]>[CF] [F,CF]2 [F,DF][F,B,F] | [F,CF]6 z2 | %4
 [F,A,F]2 [F,A,F]>[F,B,F] [F,A,F]2 [F,CF][F,B,F] | [F,A,C]2 [F,B,D]2 [F,A,C]4 | %6
 [F,A,C]>[_E,A,C] (3[D,A,D][D,A,D][^C,=B,] =C,2 A,,>A,, | z2 B,2 [F,A,C]4 | %8
 [F,A,F]>[F,A,F] (3[F,A,F][F,A,F][F,A,F] [F,B,F]2 [F,F]>[F,F] | [C,A,]4 [C,G,]2 z2 | %10
 [C,C]>[C,C] (3[C,C][C,C][C,C] [C,G,]2 [C,C]>[C,C] | [F,DF]4 [F,CF]2 z2 | %12
 [F,A,]2 [F,A,]>[F,B,F] [F,CF]2 [F,C][F,G,C] | [F,A,F]2 [F,B,F]2 [F,A,F]4 | %14
 [F,A,C]>[_E,A,C] (3[D,A,D][D,A,D][^C,=B,] =C,2 A,,>A,, | z2 B,2 [F,A,C]4 |] %16
V:3
 x8 | x8 | x8 | x8 | x8 | x8 | x8 | [CE]2 C2 F4 | x8 | x8 | x8 | x8 | x8 | x8 | x8 | [CE]2 C2 F4 |] %16
V:4
 x8 | x8 | x8 | x8 | x8 | x8 | x8 | C,4 z4 | x8 | x8 | x8 | x8 | x8 | x8 | x8 | C,4 z4 |] %16

